assets/icons/tag.svg

<svg width="23" height="22" viewBox="0 0 23 22" fill="none" xmlns="http://www.w3.org/2000/svg">
<path d="M16.5415 4.58374C17.3009 4.58374 17.9165 5.19935 17.9165 5.95874C17.9165 6.71813 17.3009 7.33374 16.5415 7.33374C15.7821 7.33374 15.1665 6.71813 15.1665 5.95874C15.1665 5.19935 15.7821 4.58374 16.5415 4.58374Z" stroke="white" stroke-width="1.5" stroke-linecap="round" stroke-linejoin="round"/>
<path d="M3.04297 10.2156C2.12341 11.2427 2.10363 12.7921 2.94757 13.8821C4.62227 16.0451 6.45527 17.8781 8.61822 19.5527C9.7082 20.3967 11.2576 20.3769 12.2847 19.4574C15.073 16.9608 17.6265 14.3516 20.0908 11.4843C20.3345 11.2009 20.4868 10.8535 20.521 10.4812C20.6723 8.83522 20.983 4.09302 19.6952 2.80517C18.4073 1.51732 13.6651 1.82803 12.0191 1.97927C11.6469 2.01348 11.2994 2.16588 11.0159 2.40951C8.1487 4.87383 5.53958 7.42734 3.04297 10.2156Z" stroke="white" stroke-width="1.5"/>
<path d="M6.9165 12.834L9.66649 15.584" stroke="white" stroke-width="1.5" stroke-linecap="round" stroke-linejoin="round"/>
</svg>

<svg xmlns="http://www.w3.org/2000/svg" width="23" height="22" fill="none" viewBox="0 0 23 22"><path stroke="#fff" stroke-linecap="round" stroke-linejoin="round" stroke-width="1.5" d="M16.542 4.584a1.375 1.375 0 1 1 0 2.75 1.375 1.375 0 0 1 0-2.75"/><path stroke="#fff" stroke-width="1.5" d="M3.043 10.216c-.92 1.027-.94 2.576-.095 3.666a31.2 31.2 0 0 0 5.67 5.67c1.09.845 2.64.825 3.667-.095a85 85 0 0 0 7.806-7.973c.243-.283.396-.63.43-1.003.151-1.646.462-6.388-.826-7.676s-6.03-.977-7.676-.826a1.8 1.8 0 0 0-1.003.43 85 85 0 0 0-7.973 7.807Z"/><path stroke="#fff" stroke-linecap="round" stroke-linejoin="round" stroke-width="1.5" d="m6.917 12.834 2.75 2.75"/></svg>
